!!!OTL: Ick heff mol en Hamborger Veermaster sehn, to my hoodah, to my hoodah
!!!ARE: Europa, Mitteleuropa, Deutschland, Schleswig - Holstein, Kiel -    Holtenau
!!!SCT: D0224
!!!YEM: Copyright 1995, estate of Helmut Schaffrath.
**kern
*ICvox
*Ivox
*M4/4
*k[]
*C:
=1
{4g
=2
4c
8.e
16e
4g
8.cc
16cc
=3
4a
8.g
16g
4e}
{8.c
16d
=4
4e
4d
4r
8.c
16d
=5
4e
4d
4r}
{4g
=6
4c
8.e
16e
4g
8.cc
16cc
=7
4a
8g
8g
4e}
{8.c
16d
=8
4e
4d
4e
4d
=9
2.c
4r}
=10
{2c
4e
4g
=11
2.cc
4b
=12
4.a
8b
4.cc
8a
=13
2.g}
{8cc
8cc
=14
4a
8.a
16a
4.a
8a
=15
4a
4g
4e
8c
8d
=16
4.e
8g
4g
4e
=17
4d
4c
2r
=18
=19
2c
4e
4g}
=20
{2.cc
4b
=21
4.a
8b
4.cc
8a
=22
2.g}
{8cc
8cc
=23
4a
8.a
16a
4.a
8a
=24
4a
4g
4e
8c
8d
=25
4.e
8g
4g
4e
=26
4d
4c
4r}
==
!!!AGN: Staende, - Lied, Seemannslied, Shanty
!! Refrain zweistimmig notiert; Inzipit = Transposition zum Lied
!!!ONB: ESAC (Essen Associative Code) Database: DVA
!!!AMT: simple quadruple
!!!AIN: vox
!!!EED: Helmut Schaffrath
!!!EEV: 1.0
*-
!!!title: @{OTL} [@{SCT}]
